src/images/app-icons/light-theme/101.svg

<svg xmlns="http://www.w3.org/2000/svg" viewBox="0 0 32 32"><defs><linearGradient id="101_svg__a" x1="7" y1="28.5" x2="26" y2="28.5" gradientUnits="userSpaceOnUse"><stop offset=".1"/><stop offset=".8" stop-opacity="0"/></linearGradient><linearGradient id="101_svg__c" y1="32" x2="32" gradientUnits="userSpaceOnUse"><stop offset=".1" stop-color="#a56eff"/><stop offset=".9" stop-color="#0f62fe"/></linearGradient><mask id="101_svg__b" x="0" y="0" width="32" height="32" maskUnits="userSpaceOnUse"><path d="M26 2H8a2 2 0 00-2 2v4H4v2h2v5H4v2h2v5H4v2h6v-2H8v-5h2v-2H8v-5h2V8H8V4h18v24H8v2h18a2 2 0 002-2V4a2 2 0 00-2-2z" fill="#fff"/><path fill="url(#101_svg__a)" d="M7 26h19v5H7z"/><path fill="#fff" d="M6 24h2v6H6z"/></mask></defs><g data-name="Layer 2"><g data-name="Light theme icons"><g mask="url(#101_svg__b)"><path fill="url(#101_svg__c)" d="M0 0h32v32H0z"/></g><path fill="#001d6c" d="M14 8h8v2h-8zM14 15h8v2h-8zM14 22h8v2h-8z"/></g></g></svg>

<svg xmlns="http://www.w3.org/2000/svg" xmlns:xlink="http://www.w3.org/1999/xlink" viewBox="0 0 32 32"><defs><style>.cls-1{fill:#fff;}.cls-2{fill:url(#linear-gradient);}.cls-3{mask:url(#mask);}.cls-4{fill:url(#linear-gradient-2);}.cls-5{fill:#001d6c;}</style><linearGradient id="linear-gradient" x1="7" y1="28.5" x2="26" y2="28.5" gradientUnits="userSpaceOnUse"><stop offset="0.1"/><stop offset="0.8" stop-opacity="0"/></linearGradient><mask id="mask" x="0" y="0" width="32" height="32" maskUnits="userSpaceOnUse"><path class="cls-1" d="M26,2H8A2,2,0,0,0,6,4V8H4v2H6v5H4v2H6v5H4v2h6V22H8V17h2V15H8V10h2V8H8V4H26V28H8v2H26a2,2,0,0,0,2-2V4A2,2,0,0,0,26,2Z"/><rect class="cls-2" x="7" y="26" width="19" height="5"/><rect class="cls-1" x="6" y="24" width="2" height="6"/></mask><linearGradient id="linear-gradient-2" y1="32" x2="32" gradientUnits="userSpaceOnUse"><stop offset="0.1" stop-color="#a56eff"/><stop offset="0.9" stop-color="#0f62fe"/></linearGradient></defs><g id="Layer_2" data-name="Layer 2"><g id="Light_theme_icons" data-name="Light theme icons"><g class="cls-3"><rect class="cls-4" width="32" height="32"/></g><rect class="cls-5" x="14" y="8" width="8" height="2"/><rect class="cls-5" x="14" y="15" width="8" height="2"/><rect class="cls-5" x="14" y="22" width="8" height="2"/></g></g></svg>
